X:1
T:Marian
T:Marian
T:Copyright © CPDL
T:Copyright © CPDL
T:Copyright © CPDL
T:Copyright © CPDL
T:Copyright © CPDL
Z:Copyright © CPDL
%%score 1 2 ( 3 4 )
L:1/8
Q:1/4=180
M:4/4
K:F
V:1 treble nm="P1"
V:2 treble nm="P2"
V:3 bass nm="P3"
V:4 bass 
V:1
"^Editor: John Henry Fowler""^(  Revision:   4 - 10 - 2008  )""^Allegretto vivace." z8 | %1
w: |
"^From \"English Lyrics\" -  Set 8 -  Number 3""^Words by George Meredith" z8 | %2
w: |
"^Charles Hubert Hastings Parry" z8 |"^( 1848 - 1918 )" z8 |!p! C2 A2 A2 c2 | (!>!dc) (AG) F2 z E | %6
w: ||She can be as|wise _ as _ we, And|
 D2 B z D2 E2 | F2 C2 z4 |!p! C2 A2 A2 c2 | (!>!dc) (AG) F2 z E | D3 B D2 E2 | F2 D2 z4 | %12
w: wis- er when she|wish- es|She can knit with|cun- * ning _ wit, And|dress the home- ly|dish- es.|
 E2 G2 (EF) (GA) | F2 c2 c3 F | G3 A (GA) (=Bc) | A2 d2 z4 | =B2 d2 G3 E | G2 A2 _B2 z D | %18
w: She can flour- * ish _|staff or pen, And|deal a * * that _|lin- gers,|She can talk the|talk of men, And|
 F3 G!<(! A2 B2!<)! | (c3!>(! d cAB!>)!G | A2) F2 z4 | z8 | z8 |!mf! z8 | C2 A2 A3 c | %25
w: touch with thril- ling|fing~\-- * * * * *|* \-~~ers.||||Match her ye a-|
 (!>!dc) (AG) F4 | D2 B2 D2 E2 | F2 C2 z4 | C2 A2 A3 c | (!>!dc) (AG) F4 | D3 G D2 E2 | F2 D2 z4 | %32
w: * * the _ sea,|Na- tures fond and|fie- ry;|Ye who zest the|tur- * tle's _ nest|With the ea- gle's|ey- rie.|
!p! E2 G2!<(! (A=B)!<)! c2 | F2!>(! E2!>)! D4 |"^cresc." G3 A (GA) (=Bc) | A2 d2 z4 | %36
w: Soft and lov- * ing|is her soul,|swift and lof- * ty _|soar- ing;|
 =B2 d2 G2 E2 | G2 A2 _B4 | A3 F A2 B2 | (!>!c3 d cA!>(! BG!>)! | A2) F2 z4 | z8 | z8 |!mf! z8 | %44
w: Mix- ing with its|dove- like dole|Pas- sion- ate a-|dor- * * * * *|* ing.||||
 C2 A2!<(! A2!<)! c2 | (!>!dc) (AG) F3 E | D2 B2 D2 E2 | F2 C2!p! z4 | C2 A2 A2 c2 | %49
w: Such a she who'll|match _ with _ me~? In|fly- ing or pur-|su- ing,|Sub- tle wiles are|
 (dc) (AG) F3 E | D3 B D2 G2 | A2 D2!f! z4 |"^allargando" !>!E2 !>!G2 !>!c4- | cAEG A3 c | %54
w: in _ her _ smiles To|set the world a|woo- ing.|She is stead~~\--|* \-~~fast as a star And|
 d3 A (GF) (ED) | !>!c2 =B2 z4 |"^Meno  Mosso."!<(! E2 =B2 d3!<)! c | =B2 A2 _e4- | %58
w: yet the mad- * est _|maid- en:|She can wage a|gal- lant war,|
 !fermata!e2!p!"^ad lib." A2 _B3 G |!<(! (c6!<)!!>(! d2 | c2 A2!>)! B2) E2 | %61
w: _ And give the|peace _|_ _ _ of|
"^a tempo" !>!G2 F2 z4 | z8 | z8 |] %64
w: E- den.|||
V:2
!mf! (c2 .[ac']) z (A2 .[fa]) z | (F2 .[cf]) z (D2 .[Bd]) z | (C2 .[Ac]) z (A,2 .[FA]) z | %3
 (C2 .[Ac]6) | (A,CAC [Fc]2) z2 | (A,DAD [Fd]2) z2 | (B,D B2) (G,B, E2) | (A,CAF cAFD) | %8
 (A,CAC [Fc]2) z2 | (A,DAD [Fd]2) z2 | (B,D B2) (G,D G2) | (A,DAE GFD=B,) | %12
 z2 .[G,CE]2 z2 .[G,CG]2 | z2 .[F,CF]2 z2 .[CDFc]2 | z2 .[G,CG]2 z2 .[CGc]2 | %15
 z2 .[A,FA]2 z2 .[DFd]2 | (G,DGD) (G,EGE) | (G,DGD) (B,DBD) | [A,DA]2 z2!<(! [A,FA]2 [B,DB]2 | %19
 ([CFc]!<)!AF!>(!D [B,E]2)!>)! .[B,C]2 | (c2 [ac']) z (A2 [fa]) z | (F2 [cf]) z (D2 [Bd]) z | %22
 (C2 [Ac]) z (A,2 [FA]) z | (C2 [Ac]4) z2 | (A,CcC [Fc]2) z2 | (A,DAD [Fd]2) z2 | %26
 (B,D B2) (G,B, E2) | (A,CAF cAFD) | (A,CAC [Fc]2) z2 | (A,DAD [Fd]2) z2 | (B,D B2) (G,D G2) | %31
 (A,DAE GFD=B,) | z2 .[G,CE]2 z2 .[G,CG]2 | z2 .[CGc]2 z2 .[CDFc]2 | z2 .[G,CG]2 z2 .[CGc]2 | %35
 z2 .[A,FA]2 z2 .[DAd]2 | z2 .[D=Bd]2 z2 .[G,EG]2 | (G,DGD) (B,DBE) | %38
 [A,FA]2 z2 .[A,FA]2 .[B,DFB]2 | ([CFc]AFD) [B,E]2 .[B,C]2 | (c2 [ac']) z (A2 [fa]) z | %41
 (F2 [df]) z (D2 [Fd]) z | (C2 [Fc]) z (A,2 [FA]) z | (C2 [Fc]) z (B,2 [Ec]) z | (A,CAF) (CFcF) | %45
 (DFdF) (DAdA) | (B,DBD) (B,DBE) | (A,CAF cAFD) | (CFAF cFCF) | (DFAF dAFD) | z (B, DB AGDB,) | %51
 z (D FA GFD=B,) | (CE) ([=B,D]G) ([CG]c) ([Ec]e) | [Acea]2 z2 [EA]2 [EAc]2 | %54
 [DAd]2 [Fdf]2 z2 [A,CF]2 | ([=B,D]G=Bd .[GBdg]2) z2 | %56
!<(! [^G,D^G]2"^cresc. molto" E2!<)! [DEAd]3 [Cc] | [B,EB]2 [A,A]2 [Ac_ea]4- | %58
 [Acea]2 !fermata!z2 [DG_B]2 z2 | z2 ([Gc=e]2 [Fcf]2 [F=Bd]2 | [E_Bc]2) z2 [B,E]2 z2 | %61
 (A2 [ca]2) (F2 [cf]) z | (D2 [Fd]) z (E,2 [B,E]) z | (F,2 [A,F]) z !>![FAf]2 z2 |] %64
V:3
 (F,,C,A,C, C2) z2 | (F,,C,A,C, B,2) z2 | (F,,C,A,C, F,2) z2 | (F,,C,A,C, A,2) z2 | %4
 (F,,C,F,C, A,2) z2 | (D,,A,,F,A,, A,2) z2 | (F,,D, G,2) (C,,G,, C,2) | (F,,C,F,C, A,2 B,2) | %8
 (F,,C,F,C, A,2) z2 | (D,,A,,F,A,, A,2) z2 | (F,,D, G,2) (B,,D, E,2) | (D,,A,, F,2) (G,,D, G,2) | %12
 (C,,G,,C,G,, E,2) z2 | (C,,G,,D,G,, F,2) z2 | (C,,G,,C,G,, E,2) z2 | (C,,A,,D,A,, F,2) z2 | %16
 (C,,G,,D,G,,) (C,,G,,E,G,,) | (_B,,,G,,D,G,,) (G,,,D,,G,,B,,) | %18
 [F,,A,,F,]2 z2!<(! [D,,D,]2 [B,,,B,,]2!<)! | [A,,,A,,]3!>(! [B,,,B,,] [C,,C,]2!>)! .C,2 | %20
"^dolce" (F,,C,A,C, C2) z2 | (F,,C,A,C, B,2) z2 | (F,,C,F,C, [D,F,]2) z2 | (F,,C,F,C, A,2) z2 | %24
!mf! (F,,C,F,C, A,2) z2 | (D,,A,,F,A,, A,2) z2 | (F,,D, G,2) (C,,G,, C,2) | (F,,C,F,C, A,2) B,2 | %28
 (F,,C,F,C, A,2) z2 | (D,,A,,F,A,, A,2) z2 | (F,,D, G,2) (B,,D, G,2) | (D,,A,, .F,2) (G,,D, G,2) | %32
!p! (C,,G,,C,G,, E,2) z2 | (C,,G,,D,G,, F,2) z2 | (C,,G,,E,G,, E,2) z2 | (C,,A,,D,A,, F,2) z2 | %36
 (C,,G,,D,G,,) (C,,G,,E,G,,) | (_B,,,G,,D,G,,) (G,,,D,,G,,B,,) | %38
 [D,,D,]2 z2 .[C,,C,]2!<(! .[B,,,B,,]2!<)! | [A,,,A,,]3 [B,,,B,,] [C,,C,]2 .C,2 | %40
!f! (F,,C,A,C,) (A,,F,CF,) | (D,A,DA,) (B,,D,B,D,) | (A,,F,A,F,) (F,,C,F,C,) | %43
 (A,,,F,,C,F,,) (C,,G,,C,G,,) | (F,,C,F,C,) (A,,C,A,C,) | (D,,A,,D,A,,) F,,D,A,D, | %46
 (G,,D,G,D, C,,2) [C,G,]2 | (F,,C,F,C, A,2) B,2 |!p! (F,,C,F,C, A,2) F,,2 | (D,,A,,D,A,, F,2) D,2 | %50
 (G,,D, G,2) (B,,D, G,2) | (D,,A,, D,2) (G,,D, G,2) | %52
!f!"^allargando" [C,,C,]2 [F,G,]2 [E,G,]2 [C,G,]2 | !>![A,,A,]2 z2 !>![C,C]2 !>![A,,A,]2 | %54
 !>![F,,F,]2 !>![D,,D,]2 z2 [D,,D,]2 |"^cresc." G,,2 G,2 (F,,=B,,D,G,) | %56
 [E,,=B,,E,]2 E,2 [A,,,A,,]2 [A,,E,A,]2- | [A,,E,A,]2 [A,,,A,,]2 (!>![^F,,,^F,,]C,_E,A, | %58
 C2) !fermata!z2"^colla voce" z2 [G,,G,]2 | [C,,C,]2 (B,2 A,2 _A,2 | G,2) z2 [C,G,]2 z2 | %61
 (F,,C,A,C,) (A,,F,CF,) | (B,,F,B,F,) C,,2 [C,G,]2 | [F,,,F,,]2 z2 !>![F,C]2 z2 |] %64
V:4
 x8 | x8 | x8 | x8 | x8 | x8 | x8 | x8 | x8 | x8 | x8 | x8 | x8 | x8 | x8 | x8 | x8 | x8 | x8 | %19
 x8 | x8 | x8 | x8 | x8 | x8 | x8 | x8 | x8 | x8 | x8 | x8 | x8 | x8 | x8 | x8 | x8 | x8 | x8 | %38
 x8 | x8 | F,,2 x2 A,,2 x2 | D,2 x2 B,,2 x2 | A,,2 x2 F,,2 x2 | A,,,2 x2 C,,2 x2 | %44
 F,,2 x2 A,,2 x2 | D,,2 x2 F,,2 x2 | G,,2 x2 x4 | F,,2 x2 x4 | F,,2 x2 x4 | D,,2 x2 x4 | x8 | x8 | %52
 x8 | x8 | x8 | x4 F,,2 x2 | x8 | x8 | x8 | x2 C4 D2 | C2 x2 x4 | x8 | x8 | x8 |] %64

